Icons and Attr/Pinball/icon_61489.svg

<svg xmlns="http://www.w3.org/2000/svg" version="1" viewBox="0 0 24 24" enable-background="new 0 0 24 24" height="100" width="100"><path d="M17.5 2c-2.5 0-4.5 2-4.5 4.5s2 4.5 4.5 4.5 4.5-2 4.5-4.5-2-4.5-4.5-4.5zm.7 2c-1.8 0-3.2 1.4-3.2 3.2 0 .4 0 .8.2 1.2-.4-.5-.7-1.2-.7-1.9 0-1.7 1.3-3 3-3 .7 0 1.3.3 1.9.7-.4-.2-.8-.2-1.2-.2zM19.1 18.5c-.5-.5-9-8.8-10.4-9.8-2-1.3-4.6-.8-6 1.2-1.3 2-.8 4.7 1.2 6 1.5 1 12.5 5.6 13 5.9 1 .4 2.1.4 2.7-.5.6-1 .2-2-.5-2.8zm-13-4.7c-.8-.1-1.4-.8-1.3-1.6s.8-1.4 1.6-1.3c.8.1 1.4.8 1.3 1.6 0 .8-.8 1.4-1.6 1.3z"/></svg>

<svg xmlns="http://www.w3.org/2000/svg" xmlns:xlink="http://www.w3.org/1999/xlink" version="1.0" id="Layer_1" x="0px" y="0px" viewBox="0 0 24 24" enable-background="new 0 0 24 24" xml:space="preserve" height="100px" width="100px">
<path d="M17.5,2C15,2,13,4,13,6.5s2,4.5,4.5,4.5S22,9,22,6.5S20,2,17.5,2z M18.2,4C16.4,4,15,5.4,15,7.2C15,7.6,15,8,15.2,8.4  c-0.4-0.5-0.7-1.2-0.7-1.9c0-1.7,1.3-3,3-3c0.7,0,1.3,0.3,1.9,0.7C19,4,18.6,4,18.2,4z"/>
<path d="M19.1,18.5c-0.5-0.5-9-8.8-10.4-9.8c-2-1.3-4.6-0.8-6,1.2c-1.3,2-0.8,4.7,1.2,6c1.5,1,12.5,5.6,13,5.9  c1,0.4,2.1,0.4,2.7-0.5C20.2,20.3,19.8,19.3,19.1,18.5z M6.1,13.8c-0.8-0.1-1.4-0.8-1.3-1.6s0.8-1.4,1.6-1.3  c0.8,0.1,1.4,0.8,1.3,1.6C7.7,13.3,6.9,13.9,6.1,13.8z"/>
</svg>
